public/img/flow-mask.svg

<svg width="102" height="175" viewBox="0 0 102 175" fill="none" xmlns="http://www.w3.org/2000/svg">
<path fill-rule="evenodd" clip-rule="evenodd" d="M-94.1973 100.917C-96.3166 107.149 -98.0539 113.494 -99.4317 119.825L-17.7551 39.0097C-19.2718 38.9861 -20.7892 38.9488 -22.3047 38.9115C-24.7784 38.8506 -27.2468 38.7899 -29.6973 38.7893L-94.1973 100.917ZM-87.4242 84.2279L-42.6571 39.7153C-49.0186 40.8238 -55.0854 43.1659 -60.6095 47.937C-71.9456 57.7276 -80.7877 70.3591 -87.4242 84.2279ZM-8.94239 38.8902L-101.843 133.314C-102.448 137.506 -102.988 141.763 -103.43 146.044L7.86593 35.3938C2.46403 37.6689 -3.19218 38.5766 -8.94239 38.8902ZM35.4301 7.98942L86.8461 -43.1286C84.5461 -43.0689 82.1991 -42.7916 79.8063 -42.2747C63.1208 -38.6703 53.0952 -21.6636 42.78 -4.16546C40.3751 -0.0860233 37.9545 4.02014 35.4301 7.98942ZM95.9274 -42.2283L-104.22 155.297C-104.546 160.196 -104.717 165.091 -104.686 169.925L100.725 -40.8201C99.1535 -41.3889 97.5541 -41.8614 95.9274 -42.2283ZM106.532 -38.2291L-104.384 178.842C-104.24 181.125 -104.041 183.385 -103.784 185.616L114.996 -32.6549C112.287 -34.7906 109.464 -36.6716 106.532 -38.2291ZM117.788 -30.331L-102.547 193.769C-101.916 197.069 -101.131 200.28 -100.173 203.38L126.282 -21.707C123.602 -24.811 120.769 -27.7191 117.788 -30.331ZM133.046 -13.057L-97.9959 209.485C-96.5429 213.045 -94.8177 216.418 -92.7867 219.562L136.766 -7.56905C135.572 -9.41875 134.331 -11.2532 133.046 -13.057ZM139.105 -3.83178L-87.4767 226.463C-87.368 226.582 -87.2587 226.7 -87.1488 226.818C-85.5775 228.502 -83.914 230.051 -82.1675 231.471L144.62 5.99858C144.342 5.42416 144.051 4.85455 143.747 4.28996C142.301 1.60372 140.753 -1.1193 139.105 -3.83178ZM146.936 11.7049L-78.6185 234.108C-75.3645 236.313 -71.8732 238.136 -68.1952 239.619L148.414 17.0055C148.004 15.2061 147.515 13.4379 146.936 11.7049ZM149.592 23.8029L-61.799 241.81C-59.8032 242.382 -57.7654 242.869 -55.6924 243.278L150.313 37.7861C150.339 33.0105 150.155 28.3302 149.592 23.8029ZM150.198 43.3502L-47.7263 244.456C-44.1703 244.818 -40.5421 244.983 -36.8729 244.976L149.323 59.8389C149.394 58.6159 149.467 57.3934 149.54 56.1722C149.798 51.8683 150.054 47.5814 150.198 43.3502ZM148.756 74.6227L-27.7385 244.624C-22.0056 244.204 -16.2365 243.423 -10.5459 242.375L149.018 84.4936C148.8 81.2384 148.73 77.9421 148.756 74.6227ZM149.718 90.9779L4.4165 238.66C15.3734 234.258 24.4319 224.679 33.558 215.028C42.9167 205.131 52.3464 195.16 63.9671 190.619L152.387 102.712C151.258 98.7827 150.324 94.8654 149.718 90.9779ZM154.672 110.012L75.8627 187.788C79.5547 187.388 83.3067 187.358 87.086 187.561L156.768 116.069C156.052 114.052 155.347 112.032 154.672 110.012ZM161.28 128.802L102.471 189.327C104.003 189.563 105.531 189.808 107.055 190.052C108.538 190.289 110.016 190.526 111.487 190.754L164.215 138.149C163.352 135.058 162.35 131.94 161.28 128.802ZM165.875 144.961L119.734 191.891C124.579 192.445 129.308 192.721 133.844 192.406L167.083 159.368C167.376 154.685 166.874 149.87 165.875 144.961Z" fill="white"/>
</svg>

<svg width="102" height="175" fill="none" xmlns="http://www.w3.org/2000/svg"><path fill-rule="evenodd" clip-rule="evenodd" d="M-94.197 100.917a173.278 173.278 0 00-5.235 18.908l81.677-80.815a492.504 492.504 0 01-4.55-.099c-2.473-.06-4.942-.121-7.392-.122l-64.5 62.128zm6.773-16.69l44.767-44.512c-6.362 1.109-12.428 3.45-17.953 8.222-11.336 9.79-20.178 22.422-26.814 36.29zM-8.942 38.89l-92.901 94.424a317.565 317.565 0 00-1.587 12.73L7.866 35.394C2.464 37.669-3.192 38.577-8.942 38.89zM35.43 7.99l51.416-51.12c-2.3.06-4.647.337-7.04.854-16.685 3.605-26.71 20.611-37.026 38.11-2.405 4.079-4.825 8.185-7.35 12.154zm60.497-50.218L-104.22 155.297c-.326 4.899-.497 9.794-.466 14.628L100.725-40.82a39.86 39.86 0 00-4.798-1.408zm10.605 3.999l-210.916 217.071c.144 2.283.343 4.543.6 6.774l218.78-218.27c-2.709-2.137-5.532-4.018-8.464-5.575zm11.256 7.898l-220.335 224.1a89.463 89.463 0 002.374 9.611L126.282-21.707c-2.68-3.104-5.513-6.012-8.494-8.624zm15.258 17.274L-97.996 209.485c1.453 3.56 3.178 6.933 5.21 10.077L136.765-7.569a144.974 144.974 0 00-3.72-5.488zm6.059 9.225L-87.477 226.463l.328.355a49.615 49.615 0 004.981 4.653L144.62 5.999a44.427 44.427 0 00-.873-1.709 179.683 179.683 0 00-4.642-8.122zm7.831 15.537L-78.619 234.108c3.254 2.205 6.746 4.028 10.424 5.511L148.414 17.006c-.41-1.8-.899-3.568-1.478-5.301zm2.656 12.098L-61.799 241.81a74.515 74.515 0 006.107 1.468L150.313 37.786c.026-4.776-.158-9.456-.721-13.983zm.606 19.547L-47.726 244.456c3.556.362 7.184.527 10.853.52L149.323 59.839c.071-1.223.144-2.446.217-3.667.258-4.304.514-8.59.658-12.822zm-1.442 31.273L-27.738 244.624c5.732-.42 11.502-1.201 17.192-2.249L149.018 84.494c-.218-3.256-.288-6.552-.262-9.871zm.962 16.355L4.417 238.66c10.956-4.402 20.015-13.981 29.141-23.632 9.359-9.897 18.788-19.868 30.41-24.409l88.419-87.907c-1.129-3.93-2.063-7.847-2.669-11.734zm4.954 19.034l-78.81 77.776c3.693-.4 7.445-.43 11.224-.227l69.682-71.492a344.699 344.699 0 01-2.096-6.057zm6.608 18.79l-58.809 60.525c1.532.236 3.06.481 4.584.725 1.483.237 2.961.474 4.432.702l52.728-52.605c-.863-3.091-1.865-6.209-2.935-9.347zm4.595 16.159l-46.141 46.93c4.845.554 9.574.83 14.11.515l33.239-33.038c.293-4.683-.209-9.498-1.208-14.407z" fill="#fff"/></svg>
